X: 11
T:Congress Reel, The
R:reel
Z:id:hn-reel-94
M:C|
K:Ador
eAAG A2 (3Bcd|eaaf gedg|eA~A2 eAcA|BGGF GABd|
eAAG ABcd|eaaf gedB|cBcd (3efg ed|cABG A2 (3Bcd:|
|:eaag ~a3g|eaag egdg|(3efg dg egdg|eaaf gedg|
eaag ~a3g|eaag (3efg dB|cBcd (3efg ed|cABG A2 (3Bcd:|
